X: 30
T:Lndlertanz (Maria Taferl)
M:3/4
L:1/8
C:trad
R:Lndler
S:Sonnleithnersammlung 1819, Pichler/Fritz: "Wer tanzt nach meiner Pfeife "
N:bei Pichler/Fritz in F-Dur, G-Dur ist Original.
K:G
B2|d2 cAc2 |G2 B2 AD|d4  Bd|edcAc2 |G2 BdAD|G4  :|
|:G2|D2 cAc2 |D2 BGB2 |D2 ADA2|d4  d2 |D2 cAAc|D2 BGGB|D2 AcAF|G4  :|
